assets/Pig/Flat/pig_flat.svg

<svg width="32" height="32" viewBox="0 0 32 32" fill="none" xmlns="http://www.w3.org/2000/svg">
<path d="M17 25H15L15.95 29.74C15.98 29.89 16.11 30 16.26 30H17.63C17.82 30 17.97 29.83 17.94 29.64L17 25Z" fill="#FF5E59"/>
<path d="M20.94 25H22.94L21.99 29.74C21.96 29.89 21.83 30 21.68 30H20.31C20.12 30 19.97 29.83 20 29.64L20.94 25Z" fill="#FF5E59"/>
<path d="M22 10L9.67001 10.01C9.20001 9.38 8.45001 9 7.66001 9H5.95001C5.55001 9 5.31001 9.45 5.54001 9.78L7.04001 12C6.26001 12.69 5.61001 13.53 5.14001 14.48C4.99001 14.8 4.66001 15 4.31001 15H2.94001C2.86694 15 2.79584 15.0083 2.7276 15.024L2.72589 20.9756C2.79465 20.9916 2.86633 21 2.94001 21H4.36001C4.77001 21 5.17001 21.16 5.46001 21.46L10.73 26.73C10.9 26.9 11 27.14 11 27.39V29.69C11 29.86 11.14 30 11.31 30H12.69C12.86 30 13 29.86 13 29.69V26L18.9593 24.8985L23.67 25.82L25.78 27.4C25.93 27.58 26 27.78 26 28V29.69C26 29.86 26.14 30 26.31 30H27.69C27.86 30 28 29.86 28 29.69V23.29C29.24 21.88 30 20.03 30 18C30 17.9951 30 17.9901 30 17.9852V13.18C30 12.19 29.39 11.35 28.52 11.01C28.27 10.91 28 11.1 28 11.37V12.707C26.5344 11.0467 24.39 10 22 10Z" fill="#FF8687"/>
<path d="M4 16.5V19.5C4 20.25 3.46 20.86 2.74 20.98C2.32 20.89 2 20.51 2 20.06V15.94C2 15.49 2.32 15.11 2.74 15.02C3.46 15.14 4 15.75 4 16.5Z" fill="#FBB8AB"/>
<path d="M13 26V24.84C13 24.38 13.38 24 13.84 24H21.85C22.85 24 23.67 24.81 23.67 25.82C23.13 25.94 22.57 26 22 26H13Z" fill="#FBB8AB"/>
<path d="M7.5 18C7.22 18 7 17.78 7 17.5V16.5C7 16.22 7.22 16 7.5 16C7.78 16 8 16.22 8 16.5V17.5C8 17.78 7.78 18 7.5 18Z" fill="#1C1C1C"/>
</svg>

<svg xmlns="http://www.w3.org/2000/svg" width="32" height="32" fill="none"><path fill="#FF5E59" d="M17 25h-2l.95 4.74c.03.15.16.26.31.26h1.37c.19 0 .34-.17.31-.36L17 25ZM20.94 25h2l-.95 4.74a.32.32 0 0 1-.31.26h-1.37c-.19 0-.34-.17-.31-.36l.94-4.64Z"/><path fill="#FF8687" d="m22 10-12.33.01A2.52 2.52 0 0 0 7.66 9H5.95c-.4 0-.64.45-.41.78L7.04 12c-.78.69-1.43 1.53-1.9 2.48-.15.32-.48.52-.83.52H2.94a.946.946 0 0 0-.212.024l-.002 5.952c.069.016.14.024.214.024h1.42c.41 0 .81.16 1.1.46l5.27 5.27c.17.17.27.41.27.66v2.3c0 .17.14.31.31.31h1.38c.17 0 .31-.14.31-.31V26l5.96-1.102 4.71.922 2.11 1.58c.15.18.22.38.22.6v1.69c0 .17.14.31.31.31h1.38c.17 0 .31-.14.31-.31v-6.4c1.24-1.41 2-3.26 2-5.29V13.18c0-.99-.61-1.83-1.48-2.17-.25-.1-.52.09-.52.36v1.337A7.98 7.98 0 0 0 22 10Z"/><path fill="#FBB8AB" d="M4 16.5v3c0 .75-.54 1.36-1.26 1.48a.944.944 0 0 1-.74-.92v-4.12c0-.45.32-.83.74-.92.72.12 1.26.73 1.26 1.48ZM13 26v-1.16c0-.46.38-.84.84-.84h8.01c1 0 1.82.81 1.82 1.82-.54.12-1.1.18-1.67.18h-9Z"/><path fill="#1C1C1C" d="M7.5 18c-.28 0-.5-.22-.5-.5v-1c0-.28.22-.5.5-.5s.5.22.5.5v1c0 .28-.22.5-.5.5Z"/></svg>
